Sources/FrostedUI/Resources/Icons.xcassets/calendarXSize20.imageset/calendar-x-size-20.svg

<svg
  width="20"
  height="20"
  viewBox="0 0 20 20"
  fill="none"
  xmlns="http://www.w3.org/2000/svg"
  data-fui-icon="true"
>
  <path
    d="M6.45833 3.95829V2.29163M13.5417 3.95829V2.29163M7.91502 8.33329L12.0831 12.5014M12.0848 8.33329L7.91667 12.5014M4.79167 16.875H15.2083C16.1288 16.875 16.875 16.1288 16.875 15.2083V5.62496C16.875 4.70448 16.1288 3.95829 15.2083 3.95829H4.79167C3.87119 3.95829 3.125 4.70448 3.125 5.62496V15.2083C3.125 16.1288 3.87119 16.875 4.79167 16.875Z"
    stroke="currentColor"
    stroke-width="1.5"
    stroke-linecap="round"
    stroke-linejoin="round"
  />
</svg>

<svg xmlns="http://www.w3.org/2000/svg" width="20" height="20" fill="none" data-fui-icon="true" viewBox="0 0 20 20"><path stroke="currentColor" stroke-linecap="round" stroke-linejoin="round" stroke-width="1.5" d="M6.458 3.958V2.292m7.084 1.666V2.292M7.915 8.333l4.168 4.168m.002-4.168-4.168 4.168m-3.125 4.374h10.416c.92 0 1.667-.746 1.667-1.667V5.625c0-.92-.746-1.667-1.667-1.667H4.792c-.92 0-1.667.746-1.667 1.667v9.583c0 .92.746 1.667 1.667 1.667"/></svg>
